X:28
T:Behind the Bush in the Garden
B:Terry "Cuz" Teahan "Sliabh Luachra on Parade" 1980
Z:Patrick Cavanagh
M:12/8
L:1/8
R:Slide
K:D
f2e | d2B BcB A2A ABA | B2B BAB g3 f2e | 
d2B BcB A2A ABA | Bcd e2c d3 :| 
d3 |: d2e f2g a2a f2e | d2e f2g a3 a3 | 
b2b a2f g2g f2e | d2d def g3 f2e :|| 

